X:1
T:Canzonetta Spagnuola
T:Canzonetta Spagnuola
T:(En medio a mis colores)
T:Gioachino Rossini
C:Gioacchino Rossini
%%score 1 { 2 | 3 }
L:1/8
Q:1/4=120
M:3/4
K:F
V:1 treble nm="Voice"
V:2 treble nm="Piano"
V:3 bass 
V:1
"^Allegro" z6 | z6 | z6 | z6 |:!mf! z!<(! D E F G A!<)! | (B/!>(!c/B/A/ G)!>)! z z2 | (!>!A6 | %7
w: ||||En me- dio a mis co-|lo- * * * res,|a-|
w: ||||Me man- do que pin-|ta- * * * ra,||
w: ||||Mi al- ma re- co-|no- * * * ce,||
 D2) z4 | z!<(! D E F G A | (B/!<)!!>(!c/B/A/ G)!>)! z z2 | (!>!A6 | D2) z4 | z F G A B c | %13
w: y!|pin- tan- do e- sta- ba un|di- * * * a,|a-|y!|cuan- do la mu- sa|
w: |a- sun- to so- brehu-|ma- * * * no,|||pe- ro lo man- do en-|
w: |la fuer- za de la|bel- * * * la,|||mas mi per- ver- sa e-|
 (d/e/d/c/ B) z z2 | ((!>!c6 | F2)) z4 | z F G A B c | (d/e/d/c/ B) z!mf! z2 |!>(! (!>!c6!>)! | %19
w: mi- * * * a,|a-|y!|me vi- no a tor- men-|tar _ _ _ _|a-|
w: va- * * * no,|||so- lo pu- de so-|nar _ _ _ _|_|
w: stre- * * * lla,|||men- ten- ga ya el can-|tar _ _ _ _|_|
 A) z!mp! (=B4 ||[K:D]!>(! E6!>)! | D4) z2 | z2 z2!mf! A2 | B2- B3/2 A/ (B>A) | B2- (B>A) (B>A) | %25
w: y, a-||y!|ay,|con _ _ do- *|lor _ _ pués _|
w: ||||||
w: ||||||
 (Ad) !breath!f4 | (FA) d4 | (E^G) !breath!B4 | (B/A/B/A/) (B/A/B/A/) (B/A/B/A/) | %29
w: de- * jo|o- * bra|siem- * pre,|siem- * * * pre _ _ _ di- * * *|
w: ||||
w: ||||
 (B/A/^G/A/) F2 z2 | z2 z2 A2 | B2- B/A/^G/A/ B/A/G/A/ | B2- B/A/^G/A/ B/A/G/A/ | (Ad f4) | %34
w: cho- * * * sa|cual|es _ _ _ _ de _ _ _|Li- * * * * lla _ _ _|mi- * a|
w: |||||
w: |||||
 (FA d4) | (E^G B4) | (B/A/B/A/) (B/A/B/A/) (B/A/B/A/) | F2 z2 z2 | z d =c _B A G | %39
w: las _ _|pren- * das|ce- * * * * * * * le- * * *|brar,|las pren- das ce- le-|
w: |||||
w: |||||
 (D/E/D/C/ D) z z2 | z d =c _B A G | (D/E/D/C/ D) z z2 | (e4- e>d | d4) z2 | (e4- e>d | d4) z2 |1 %46
w: brar, _ _ _ _|las pren- das ce- le-|brar, _ _ _ _|a- * *|y!|a- * *|y!|
w: |||||||
w: |||||||
"^2." z6 :|3 z6 |] %48
w: ||
w: ||
w: ||
V:2
 z .[A,DF] z .[A,DF] z .[A,DF] | z .[B,DG] z .[B,DG] z .[B,DG] | z .[^CE] z .[CEA] z .[CEA] | %3
 z .[A,DF] z .[A,DF] z .[A,DF] |: z .[A,DF] z .[A,DF] z .[A,DF] | z .[B,DG] z .[B,DG] z .[B,DG] | %6
 z .[^CEA] z .[CEA] z .[CEA] | z .[A,DF] z .[A,DF] z .[A,DF] | z .[A,DF] z .[A,DF] z .[A,DF] | %9
 z .[B,DG] z .[B,DG] z .[B,DG] | z .[^CEA] z .[CEA] z .[CEA] | z .[A,DF] z .[=CEG=c] z .[G,B,E] | %12
 z .[A,CF] z .[CFA] z .[CFA] | z .[DFB] z .[DFB] z .[DFB] | z .[B,EG] z .[B,EG] z .[B,EG] | %15
 z .[A,CF] z .[A,CF] z .[A,CF] | z .[A,CF] z .[CFA] z .[CFA] | z .[DFB] z .[DFB] z .[DFB] | %18
 z .[B,EG] z .[B,EG] z .[B,EG] | z .[A,CF] z .[DE^G] z .[DEG] || %20
[K:D] z .[A,CG] z .[A,CG] z .[A,CG] | z .[A,DF] z .[A,DF] z .[A,DF] | %22
 z .[A,DF] z .[A,DF] z .[A,DF] | z .[A,CEG] z .[A,CEG] z .[A,CEG] | %24
 z .[A,CEG] z .[A,CEG] z .[A,CEG] | z .[A,DF] z .[A,DF] z .[A,DF] | z .[A,DF] z .[A,DF] z .[A,DF] | %27
 z .[B,DE^G] z .[B,DEG] z .[B,DEG] | z .[A,CEG] z .[A,CEG] z .[A,CEG] | %29
 z .[A,DF] z .[A,DF] z .[A,DF] | z .[A,DF] z .[A,DF] z .[A,DF] | z .[A,CEG] z .[A,CEG] z .[A,CEG] | %32
 z .[A,CEG] z .[A,CEG] z .[A,CEG] | z .[A,DF] z .[A,DF] z .[A,DF] | z .[A,DF] z .[A,DF] z .[A,DF] | %35
 z .[B,DE^G] z .[B,DEG] z .[B,DEG] | z .[A,CEG] z .[A,CEG] z .[A,CEG] | %37
 z .[A,DF] z .[A,DF] z .[A,DF] | z .[_B,DG] z .[B,DG] z .[B,DG] | z .[A,DF] z .[A,DF] z .[A,DF] | %40
 z .[_B,DG] z .[B,DG] z .[B,DG] | z .[A,DF] z .[A,DF] z .[A,DF] | %42
 z .[^A,CEG] z .[A,CEG] z .[A,CEG] | z .[A,DF] z .[A,DF] z .[A,DF] | %44
 z .[^A,CEG] z .[A,CEG] z .[A,CEG] | z .[A,DF] z .[A,DF] z .[A,DF] |1 %46
"^2." z .[A,DF] z .[A,DF] z .[A,DF] :|3 !fermata![A,DF]6 |] %48
V:3
!mp!!<(! .[D,,D,] z .[D,,D,] z .[D,,D,] z!<)! |!mf!!<(! .[G,,G,] z .[G,,G,] z .[G,,G,] z!<)! | %2
 .[A,,A,] z .[A,,A,]!>(! z .[A,,A,] z | .[D,,D,] z .[D,,D,] z .[D,,D,]!>)! z |: %4
!p!!<(! .[D,,D,] z .[D,,D,] z .[D,,D,] z!<)! |!mp!!<(! .[G,,G,] z .[G,,G,] z .[G,,G,] z!<)! | %6
!mf!!>(! .[A,,A,] z .[A,,A,] z .[A,,A,] z | .[D,,D,]!>)! z!p! .[D,,D,] z .[D,,D,] z | %8
!<(! .[D,,D,] z .[D,,D,] z .[D,,D,] z!<)! |!mf! .[G,,G,] z .[G,,G,] z .[G,,G,] z | %10
!>(! .[A,,A,] z .[A,,A,] z .[A,,A,] z!>)! |!p! .[D,,D,] z!mf! .[=C,,=C,] z .[C,,C,] z | %12
!mp! .[F,,F,] z .[F,,F,] z .[F,,F,] z | .[B,,B,] z .[B,,B,] z .[B,,B,] z | %14
 .[C,C] z .[C,C] z .[C,C] z | .[F,,F,] z .[F,,F,] z .[F,,F,] z | .[F,,F,] z .[F,,F,] z .[F,,F,] z | %17
 .[B,,B,] z .[B,,B,] z .[B,,B,] z | .[C,C] z .[C,C] z .[C,C] z | %19
 .[F,,F,] z .[E,,E,] z .[E,,E,] z ||[K:D] .[A,,A,] z .[A,,A,] z .[A,,A,] z | %21
!p! .[D,,D,] z .[D,,D,] z .[D,,D,] z | .[D,,D,] z .[D,,D,] z!mp! .[D,,D,] z | %23
 .[D,,D,] z .[D,,D,] z .[D,,D,] z | .[D,,D,] z .[D,,D,] z .[D,,D,] z | %25
 .[D,,D,] z .[D,,D,] z .[D,,D,] z | .[D,,D,] z .[D,,D,] z .[D,,D,] z | %27
!>(! .[D,,D,] z .[D,,D,] z .[D,,D,] z!>)! | .[D,,D,] z .[D,,D,] z!mp! .[D,,D,] z | %29
 .[D,,D,] z .[D,,D,] z .[D,,D,] z |!<(! .[D,,D,] z .[D,,D,] z .[D,,D,] z!<)! | %31
!mf! .[D,,D,] z .[D,,D,] z .[D,,D,] z | .[D,,D,] z .[D,,D,] z .[D,,D,] z | %33
 .[D,,D,] z .[D,,D,] z .[D,,D,] z |!>(! .[D,,D,] z .[D,,D,] z .[D,,D,] z | %35
 .[D,,D,] z .[D,,D,] z .[D,,D,]!>)! z |!mp! .[D,,D,] z .[D,,D,] z .[D,,D,] z | %37
 .[D,,D,] z .[D,,D,] z .[D,,D,] z |!mf! .G,, z .G,, z .G,, z | %39
!mp! .[D,,D,] z .[D,,D,] z .[D,,D,] z |!mf! .G,, z .G,, z .G,, z | %41
!mp! .[D,,D,] z .[D,,D,] z .[D,,D,] z |!mf! .[D,,D,] z .[D,,D,] z .[D,,D,] z | %43
!mp! .[D,,D,] z .[D,,D,] z .[D,,D,] z |!mf! .[D,,D,] z .[D,,D,] z .[D,,D,] z | %45
 .[D,D] z!mp! .[A,,A,] z .[F,,F,] z |1 .[D,,D,] z .[A,,A,] z .[F,,F,] z :|3 !fermata![D,,D,]6 |] %48

